X: 2
T: The Banks Of Newfoundland
R: jig
M: 6/8
L: 1/8
K: Gmaj
A|~B3 AGE|GBd g2e|ded B2A|BGE EGA|BAG AGE|GBd g2e|ded B2A|BGF G2:|A|B2g gfg|e2a aga|bge dBG|~B3 AGA|B2g gfg|e2a aga|bge dBA|BGF G2A|B2g gfg|e2a aga|bge dBG|~B3 AGA|BAG AGE|GBd g2e|ded B2A|BGF G2||


Tune 3172	Setting 22671

